X:10286
T:Marcha Celta (MG 56) (Arrg.)
R:Marcha
C:Tradicional
S:Msica Tradicional Asturiana, (C) Tello & Tito. Asturies, 2001.
S:http://pagina.de/MusTradAst <telloytito@asturies.org>
A:Asturies
G:Arrg.
Z:Mtodu de Gaita 56
P:ABA
E:Comp.
M:2/4
L:1/8
Q:1/4=120
K:C
P:A
|"C"C2 D2|"C"E3 D/2E/2|"G7"FE/2F/2 G/2F/2E/2F/2|"G7"D4|
"G7"B,2 C2|"G7"D3 C/2D/2|"C"ED/2E/2 F/2E/2D/2E/2|"C"C4:|
|:"Am"AG FE|"G7"DD/2E/2 D/2C/2D/2E/2|"G7"DD/2E/2 D/2C/2D/2E/2|"G7"D3 E/2F/2|
"G7"GAFG|"C"E3 E/2F/2|"G7"GA FG|"C"E3/2E/2 E/2D/2E/2F/2|
"G7"D3/2D/2D/2C/2D/2E/2|"C"C4:|
P:B
"Em"E2 F2|"G7"G3 F/2G/2|"Am"AG/2A/2 B/2A/2G/2A/2|"F"F4|
"G7"D2 E2|"F"F3 E/2F/2|"G7"GF/2G/2 A/2G/2F/2G/2|"Em"E4:|
|:"G7"(cB)(AG)|FF/2G/2 "G7"F/2E/2F/2G/2|"G7"FF/2G/2 F/2E/2F/2G/2|"F"F3 G/2A/2|
(Bc)(AB)|"G"G3 G/2A/2|(Bc)(AB)|G3/2G/2"G7"G/2F/2G/2A/2|
"G7"F3/2F/2 F/2E/2F/2G/2|"Em"E4:|
